!!!OTL: Dongtinghushang da getai
!!!ARE: Asia, China,ÿHunan, Yueyang
!! I, 577
!!!SCT: C1480
!!!YEM: Copyright 1995, estate of Helmut Schaffrath.
**kern
*ICvox
*Ivox
*M2/4
*k[]
*C:
{8ee
8ee
8dd
16cc
16cc
=1
4.gg
8ee
=2
8dd
8ee
8dd
16cc
16cc
=3
4.dd
8ee}
=4
{16a
16cc
16dd
16dd
8cc
16cc
16a
=5
16a
16cc
16dd
16cc
4a
=6
16a
16cc
8ee
16cc
16dd
16cc
16a
=7
8.g
16a
4g}
==
!!!AGN: Wuge, Huagu, Fangyang diao
!!!ONB: ESAC (Essen Associative Code) Database: HUANG
!!!AMT: simple duple
!!!AIN: vox
!!!EED: Helmut Schaffrath
!!!EEV: 1.0
*-
